src/raw/automatic/icon_24.svg

<svg width="24" height="24" viewBox="0 0 24 24" fill="none" xmlns="http://www.w3.org/2000/svg">
<path d="M18.5 14.25V9.75L21.5 14.25V9.75" stroke="#71717A" stroke-width="1.5" stroke-linecap="round" stroke-linejoin="round"/>
<path d="M21.5 20.25C21.5 19.4544 21.1839 18.6913 20.6213 18.1287C20.0587 17.5661 19.2956 17.25 18.5 17.25V23.25C19.2956 23.25 20.0587 22.9339 20.6213 22.3713C21.1839 21.8087 21.5 21.0456 21.5 20.25Z" stroke="#71717A" stroke-width="1.5" stroke-linecap="round" stroke-linejoin="round"/>
<path d="M18.5 3.75H20C20.3978 3.75 20.7794 3.59196 21.0607 3.31066C21.342 3.02936 21.5 2.64782 21.5 2.25C21.5 1.85218 21.342 1.47064 21.0607 1.18934C20.7794 0.908035 20.3978 0.75 20 0.75H18.5V6.75" stroke="#71717A" stroke-width="1.5" stroke-linecap="round" stroke-linejoin="round"/>
<path d="M5 6.75V11.25C5 11.6478 5.15804 12.0294 5.43934 12.3107C5.72064 12.592 6.10218 12.75 6.5 12.75H8C8.39782 12.75 8.77936 12.908 9.06066 13.1893C9.34196 13.4706 9.5 13.8522 9.5 14.25V18.75C9.5 19.1478 9.65804 19.5294 9.93934 19.8107C10.2206 20.092 10.6022 20.25 11 20.25H13.7161" stroke="#71717A" stroke-width="1.5" stroke-linecap="round" stroke-linejoin="round"/>
<path d="M5 6.75C6.65685 6.75 8 5.40685 8 3.75C8 2.09315 6.65685 0.75 5 0.75C3.34315 0.75 2 2.09315 2 3.75C2 5.40685 3.34315 6.75 5 6.75Z" stroke="#71717A" stroke-width="1.5" stroke-linecap="round" stroke-linejoin="round"/>
</svg>

<svg xmlns="http://www.w3.org/2000/svg" width="24" height="24" fill="none" viewBox="0 0 24 24">
  <path stroke="#3F3F46" stroke-linecap="round" stroke-linejoin="round" stroke-width="1.5"
    d="M18.5 14.25v-4.5l3 4.5v-4.5M21.5 20.25a3 3 0 0 0-3-3v6a3 3 0 0 0 3-3ZM18.5 3.75H20a1.5 1.5 0 0 0 0-3h-1.5v6M5 6.75v4.5a1.5 1.5 0 0 0 1.5 1.5H8a1.5 1.5 0 0 1 1.5 1.5v4.5a1.5 1.5 0 0 0 1.5 1.5h2.716M5 6.75a3 3 0 1 0 0-6 3 3 0 0 0 0 6Z" />
</svg>
